X:1
T: The Earl of Rothes
C:
R:Strathspey
Q: 128
K:D
M:4/4
L:1/16
A,4|:D4 FGA2 D4 GAB2|D4 FGA2 ((3G2E2C2) ((3A,2B,2C2)|D4 FGA2 D4 GAB2|Ad3 A3G FD3 D4|
D4 FGA2 D4 GAB2|D4 FGA2 ((3G2E2C2) ((3A,2B,2C2)|D4 FGA2 D4 GAB2|Ad3 A3G FD3 D4|
d4 ((3f2e2d2) a3d ((3f2e2d2)|Be3 e3d ((3c2d2e2) e3f|d4 ((3f2e2d2) a3d ((3f2e2d2)|Be3 A3c d4 d4|
d4 ((3f2e2d2) a3d ((3f2e2d2)|Be3 e3d ce3 e3f|d4 ((3A2G2F2) GB3 A3D|((3C2D2E2) A,3A FD3 D4:|
